X: 627
T: Edâlı Bir Yosma
C: Ali Rıfat Çağatay
O: Turkey
F: http://compmusic.upf.edu/node/140
N: huseyni--sarki--curcuna--edali_bir--ali_rifat_cagatay
N: makam= huseyni
N: form= sarki
N: usul= curcuna = 10/8
M: 10/8
L: 1/16
K: C _2/4B ^3/4f  
Q: 1/4=180
%%MIDI tuningsystem comma53
z4 c2d4e4e4d2  | g4 f2g4e8d2  | a4 g4 f2g4f4e2  | \
w:  E dâ lı  bir   |  yos *  *  ma   |  ka ra *  rım  al  | 
e4 =f2e2 d2c2 B2A4z2  | 
w:  dı   SAZ  | 
z4 c2d4e4e4d2  | g4 f2g4e8d2  | a4 g4 f2g4f4e2  | \
w:  E dâ lı  bir   |  yos *  *  ma   |  ka ra *  rım  al  | 
e4 f2e2 d2c2 d2e4z2  | 
w:  dı   SAZ  | 
z4 g2a4a4a4g2  | g4 =f2f2 e2e2 d2d4c2  | \
w:  Be ni  Mec nûn   |  gi *  *  *  bi   | 
g4 =f2f2 e2e2 d2d2 c2B2  | 
w:  sah *  ra *  ya  *  sal  | 
c8-c2c2 d2e4z2  | z4 d2e4e4e4d2  | d4 c2c2 B2B2 A2A4G2  | \
w:  dı   SAZ  |  Be ni  Mec nûn   |  gi *  *  *  bi   | 
e4 d2d2 c2c2 B2B4A2  | 
w:  sah *  ra *  ya  *  sal  | 
A6g4f2 a2g4z2  | z4 f2g4g2 f2g6  | f2g2 a2=b4a2 g2^f4e2  | \
w:  dı   SAZ  |  Gö nül  gam  *  i  |  çin *  *  *  de   | 
a4 g4 f2f2 e2e4f2  | 
w:  bu nal *  dı  *  kal  | 
g8-g2f2 a2g4z2  | z4 f2g4g2 f2g6  | f2g2 a2=b4a2 g2^f4e2  | \
w:  dı   SAZ  |  Gö nül  gam  *  i  |  çin *  *  *  de   | 
a4 g4 f2gf g2f4e2  | 
w:  bu nal *  dı  *  *  kal  | 
e4 =f2e2 d2c2 d2e4z2  | e6e2 d2d2 {=f}edd4z2  | \
w:  dı   SAZ  |  Ağ *  *  la *  *  *  rım   | 
d6d2 c2d2 e2c4B2  | 
w:  sız *  *  la *  rım   | 
e4 d2d2 c2c2 _1/4B2_2/4B4A2  | e18z2  | \
w:  ha *  li *  mi  *  bil  |  mez    | 
e6e2 d2d2 {=f}edd4z2  | d6d2 c2d2 e2c4B2  | 
w:  Ağ *  *  la *  *  *  rım   |  sız *  *  la *  rım   | 
e4 d2d2 c2c2 _1/4B2_2/4B4A2  | A18z2  | |


